X:1
T:Raspberry Lane
M:4/4
L:1/4
K:D
 A| D D F A| B B A F| E2 D C| D3 A| d2 d c| B2 c d| e A A ^G| A2 B- c|\
 d2 d F| G/2 G3/2 G A| B B B3/2 F/2| A3 A| D2 F A/2A/2| B2 A F| E2 D C|\
 D3||
